X:455
T:B455-  Sweet, Use Your Time
Q:1/4=120
L:1/4
M:C|
K:Am
e|cAAf|dBBg|cdd3/2c/|c3||g|\
ecce|dBBe|A3/2c/B(c/A/)|^G3||:A|\
F(E/D/)Dd|B^GE3/2E/|A3/2B/B3/2A/|A3:|]
